images/svg/icons/social/skype_hover.svg

<?xml version="1.0" encoding="UTF-8" standalone="no"?>
<svg width="40px" height="40px" viewBox="0 0 40 40" version="1.1" xmlns="http://www.w3.org/2000/svg" xmlns:xlink="http://www.w3.org/1999/xlink" xmlns:sketch="http://www.bohemiancoding.com/sketch/ns">
    <!-- Generator: Sketch 3.5.2 (25235) - http://www.bohemiancoding.com/sketch -->
    <title>skype copy</title>
    <desc>Created with Sketch.</desc>
    <defs></defs>
    <g id="Icon" stroke="none" stroke-width="1" fill="none" fill-rule="evenodd" sketch:type="MSPage">
        <g id="Social-media-Icons" sketch:type="MSArtboardGroup" transform="translate(-77.000000, -1856.000000)">
            <g id="skype-copy" sketch:type="MSLayerGroup" transform="translate(77.000000, 1856.000000)">
                <path d="M0,40 L40,40 L40,0 L0,0 L0,40 Z" id="bg" fill="#1C78AA" sketch:type="MSShapeGroup"></path>
                <path d="M29.728,20.0512 C29.728,14.624 25.4272,10.3232 20,10.3232 C19.3856,10.3232 18.8736,10.3232 18.3616,10.4256 C17.5424,9.8112 16.416,9.6064 15.392,9.6064 C12.2176,9.6064 9.76,12.1664 9.76,15.2384 C9.76,16.3648 9.9648,17.2864 10.4768,18.1056 C10.3744,18.72 10.3744,19.3344 10.3744,20.0512 C10.3744,25.4784 14.6752,29.7792 20.1024,29.7792 C20.7168,29.7792 21.3312,29.7792 21.9456,29.6768 C22.7648,30.1888 23.584,30.3936 24.608,30.3936 C27.7824,30.3936 30.24,27.8336 30.24,24.7616 C30.24,23.84 30.0352,22.9184 29.6256,22.2016 C29.6256,21.4848 29.728,20.768 29.728,20.0512 L29.728,20.0512 Z M25.12,24.7616 C24.608,25.376 23.9936,25.9904 23.1744,26.2976 C22.3552,26.7072 21.2288,26.8096 20.2048,26.8096 C18.7712,26.8096 17.6448,26.6048 16.7232,26.0928 C16.1088,25.6832 15.4944,25.2736 15.1872,24.6592 C14.7776,24.0448 14.5728,23.4304 14.5728,22.816 C14.5728,22.4064 14.6752,22.0992 14.9824,21.8944 C15.1872,21.6896 15.5968,21.4848 15.904,21.4848 C16.2112,21.4848 16.5184,21.5872 16.7232,21.6896 C16.928,21.8944 17.1328,22.2016 17.3376,22.5088 C17.44,22.9184 17.7472,23.2256 17.952,23.4304 C18.1568,23.6352 18.464,23.9424 18.7712,24.0448 C19.1808,24.1472 19.5904,24.2496 20.2048,24.2496 C21.024,24.2496 21.6384,24.1472 22.1504,23.7376 C22.6624,23.328 22.8672,23.0208 22.8672,22.5088 C22.8672,22.0992 22.7648,21.792 22.4576,21.5872 C22.2528,21.3824 21.8432,21.0752 21.3312,20.9728 C20.8192,20.8704 20.2048,20.768 19.488,20.4608 C18.5664,20.256 17.5424,19.9488 16.928,19.744 C16.2112,19.5392 15.5968,19.0272 15.2896,18.5152 C14.88,18.0032 14.6752,17.2864 14.6752,16.5696 C14.6752,15.8528 14.88,15.136 15.392,14.624 C15.904,14.0096 16.5184,13.7024 17.3376,13.2928 C18.1568,13.088 19.1808,12.7808 20.2048,12.7808 C21.024,12.7808 21.8432,12.8832 22.4576,12.9856 C23.072,13.1904 23.6864,13.4976 23.9936,13.8048 C24.5056,14.2144 24.7104,14.5216 24.9152,14.9312 C25.12,15.3408 25.3248,15.648 25.3248,16.0576 C25.3248,16.4672 25.2224,16.7744 24.9152,16.9792 C24.608,17.184 24.3008,17.3888 23.9936,17.3888 C23.6864,17.3888 23.3792,17.2864 23.1744,17.184 C22.9696,17.0816 22.7648,16.7744 22.56,16.4672 C22.3552,15.9552 22.048,15.648 21.7408,15.3408 C21.3312,15.136 20.9216,14.9312 20.1024,14.9312 C19.3856,14.9312 18.7712,15.0336 18.464,15.3408 C17.6448,15.7504 17.5424,16.0576 17.5424,16.4672 C17.5424,16.672 17.6448,16.8768 17.7472,17.0816 C17.8496,17.184 18.1568,17.4912 18.3616,17.5936 C18.5664,17.696 18.8736,17.7984 19.1808,18.0032 C19.3856,18.1056 19.8976,18.208 20.512,18.4128 C21.3312,18.5152 22.048,18.8224 22.6624,19.0272 C23.2768,19.232 23.8912,19.5392 24.3008,19.744 C24.8128,20.1536 25.12,20.4608 25.4272,20.9728 C25.632,21.4848 25.8368,22.0992 25.8368,22.6112 C25.632,23.328 25.4272,24.0448 25.12,24.7616 L25.12,24.7616 Z" id="icon" fill="#FFFFFF" sketch:type="MSShapeGroup"></path>
            </g>
        </g>
    </g>
</svg>

<svg xmlns="http://www.w3.org/2000/svg" viewBox="0 0 40 40"><defs><style>.a{fill:#008dcb;}.b{fill:#fff;}</style></defs><title>skype_hover</title><polygon class="a" points="0 40 40 40 40 0 0 0 0 40"/><path class="b" d="M29.73,20.05A9.66,9.66,0,0,0,20,10.32a8.28,8.28,0,0,0-1.64.1,5,5,0,0,0-3-.82,5.62,5.62,0,0,0-5.63,5.63,5.19,5.19,0,0,0,.72,2.87,11.76,11.76,0,0,0-.1,1.95,9.66,9.66,0,0,0,9.73,9.73,11.13,11.13,0,0,0,1.84-.1,4.73,4.73,0,0,0,2.66.72,5.62,5.62,0,0,0,5.63-5.63,5.26,5.26,0,0,0-.61-2.56c0-.72.1-1.43,0.1-2.15h0Zm-4.61,4.71a4.83,4.83,0,0,1-1.95,1.54,7,7,0,0,1-3,.51,7,7,0,0,1-3.48-.72,4.16,4.16,0,0,1-1.54-1.43,3.3,3.3,0,0,1-.61-1.84A1,1,0,0,1,15,21.89a1.53,1.53,0,0,1,.92-0.41,1.93,1.93,0,0,1,.82.2,5.68,5.68,0,0,1,.61.82,2.08,2.08,0,0,0,.61.92,2.46,2.46,0,0,0,.82.61,5.34,5.34,0,0,0,1.43.2,2.92,2.92,0,0,0,1.95-.51,1.45,1.45,0,0,0,.72-1.23,1,1,0,0,0-.41-0.92A2.32,2.32,0,0,0,21.33,21a8.5,8.5,0,0,1-1.84-.51c-0.92-.2-1.95-0.51-2.56-0.72a2.93,2.93,0,0,1-1.64-1.23,3.15,3.15,0,0,1-.61-1.95,2.7,2.7,0,0,1,.72-1.95,5.46,5.46,0,0,1,1.95-1.33,11.92,11.92,0,0,1,2.87-.51,14.12,14.12,0,0,1,2.25.2A4.31,4.31,0,0,1,24,13.8a3,3,0,0,1,.92,1.13,2.52,2.52,0,0,1,.41,1.13,1,1,0,0,1-.41.92,1.84,1.84,0,0,1-.92.41,1.93,1.93,0,0,1-.82-0.2,2.22,2.22,0,0,1-.61-0.72,3.21,3.21,0,0,0-.82-1.13,3.17,3.17,0,0,0-1.64-.41,2.42,2.42,0,0,0-1.64.41,1.17,1.17,0,0,0-.92,1.13,1.46,1.46,0,0,0,.2.61,3.25,3.25,0,0,0,.61.51,6,6,0,0,1,.82.41c0.2,0.1.72,0.2,1.33,0.41a10.77,10.77,0,0,1,2.15.61,12.92,12.92,0,0,1,1.64.72A4.25,4.25,0,0,1,25.43,21a4.82,4.82,0,0,1,.41,1.64,17.65,17.65,0,0,1-.72,2.15h0Z"/></svg>
